docs/gfx/photodiode.svg

<svg version="1.1" viewBox="0 0 16 16" width="16" height="16" xmlns="http://www.w3.org/2000/svg">
	<path fill-rule="evenodd" d="m6 8h4v6h1v-6h2v-1h-1v-5h-4v5h-3v-5h-1v5h-1v1h2v6h1zm-6-8h16v16h-16z"/>
</svg>

<svg width="16" height="16" xmlns="http://www.w3.org/2000/svg">
	<path fill-rule="evenodd" d="M6 8h4v6h1V8h2V7h-1V2H8v5H5V2H4v5H3v1h2v6h1zM0 0h16v16H0z"/>
</svg>
